fs/arrow_fit_16_regular.svg

<svg viewBox="0 0 16 16" fill="none" xmlns="http://www.w3.org/2000/svg" height="1em" width="1em">
  <path d="M3.85355 5.14645C4.04882 5.34171 4.04882 5.65829 3.85355 5.85355L2.70711 7H6.5C6.77614 7 7 7.22386 7 7.5C7 7.77614 6.77614 8 6.5 8H2.70711L3.85355 9.14645C4.04882 9.34171 4.04882 9.65829 3.85355 9.85355C3.65829 10.0488 3.34171 10.0488 3.14645 9.85355L1.14645 7.85355C0.951184 7.65829 0.951184 7.34171 1.14645 7.14645L3.14645 5.14645C3.34171 4.95118 3.65829 4.95118 3.85355 5.14645ZM12.1464 5.14645C12.3417 4.95118 12.6583 4.95118 12.8536 5.14645L14.8536 7.14645C15.0488 7.34171 15.0488 7.65829 14.8536 7.85355L12.8536 9.85355C12.6583 10.0488 12.3417 10.0488 12.1464 9.85355C11.9512 9.65829 11.9512 9.34171 12.1464 9.14645L13.2929 8H9.5C9.22386 8 9 7.77614 9 7.5C9 7.22386 9.22386 7 9.5 7H13.2929L12.1464 5.85355C11.9512 5.65829 11.9512 5.34171 12.1464 5.14645Z" fill="#212121"/>
</svg>

<svg viewBox="0 0 16 16" fill="none" xmlns="http://www.w3.org/2000/svg" height="1em" width="1em">
  <path d="M3.854 5.146a.5.5 0 0 1 0 .708L2.707 7H6.5a.5.5 0 0 1 0 1H2.707l1.147 1.146a.5.5 0 1 1-.708.708l-2-2a.5.5 0 0 1 0-.708l2-2a.5.5 0 0 1 .708 0Zm8.292 0a.5.5 0 0 1 .708 0l2 2a.5.5 0 0 1 0 .708l-2 2a.5.5 0 0 1-.708-.708L13.293 8H9.5a.5.5 0 0 1 0-1h3.793l-1.147-1.146a.5.5 0 0 1 0-.708Z" fill="#212121"/>
</svg>
